X: 2041
T: Quick To The Hospital
C:Steve Ryan
B: steve tunes
B: steve originals
M:6/8
Q: 3/8=105
K:D
V:1 
"D"DFA dcB|dcB "A"AGF|"D"DFA dcB|AGF "A"EFE|
"D"DFA dcB|dcB "A"AGF|"A"EFE EFE|"D"DFA D3|
"A"EFE "D"FGF|"A"GAG "D"FGF|"A"EFE "D"FGF|"A"GAG "D"E3|
"A"EFE "D"FGF|"A"EFE "D"FGF|"D"DFA dFA|dFA D3||
W: 
% abcbook-tune_id 62a52aae4d9934b3c529e54a


% abcbook-boost 0
% abcbook-tablature 
% abcbook-transpose 
% abcbook-lastupdated 1667171943631
% abcbook-soundfonts 
% abcbook-repeats 3


